X: 262
T: Blarney Pilgrim
R: jig
M: 6/8
L: 1/8
K:Dmix
"D"DED DEG|~A3 "D7"ABc|"G" BAG "D"AGE|"G" GEA GED|
"D"DED DEG|~A3 "D7"ABc|"G"BAG "D"AGE|"G" GED"D" D3:|
"D"~d3 "G"dBG|"D"AGA "G"BGE| "D"ded "G"dBG|"D"AGA "G"GBd|
"Em(G)"g2e "G"dBG|"D"AGA "G"BGE|B2G "D"AGE| "G"GED "D"D3:|
"D"ADD "G"BDD|"D" ADD "D7"ABc|"G"BAG "D"AGE|"G"GEA GED|
"D"ADD "G"BDD|"D"ADD "D7"ABc|"G"BAG "D"AGE|"G"GED "D"D3:|


